X:1
T:Perche ripieno
T:Giovanni Animuccia
T:Source : Primo libro delle Laude spirituali a tre voci---Roma---A.Gardano---1583. Editor : André Vierendeels (22/10/17). Notes : Original clefs : C1, C2, C4 Original note values have been halved in 3-beat masures Editorial accidentals above the staff
T:Perche ripieno
T:©
T:©
C:Giovanni Animuccia
Z:©
%%score [ 1 [ 2 3 ] ]
L:1/8
Q:1/4=120
M:4/4
K:C
V:1 treble nm="Alto" snm="A"
V:2 treble-8 nm="Tenor 1" snm="T 1"
V:3 treble-8 nm="Tenor 2" snm="T 2"
V:1
"^1)" z2 A2 A2 A2 | G2 F2 E4 | D2 E2 E2 E2 | D2 C2 B,4 | A,8 :: F8 |[M:3/4] E4 D2 | E4 E2 | D4 C2 | %9
w: Per- che ri-|pie- no sei|cor mi- o di|tant' o- me-|i,|spe-|ra ch'an-|cor ve-|dro chi|
w: Di tua pre-|sen- za'a- mo-|re, gia s'è nu-|tri- to'l co-|re,|hor|se que-|sta non|ho, co-|
 C4 C2 | D4 D2 |[M:4/4] C8 | E2 EF G2 A2 | G4 A4 |[M:3/4] F2 F2 G2 | E4 E2 |[M:4/4] D8 :| %17
w: ral- le-|grar mi|puo|lu- ce de gl'oc- chi|mie- i|piu non ti|la- scia-|ro.|
w: me vi-|ver po-|tro;|soc- cor- ri- mi'o Si-|gno- re,|se non ch'i|mi mor-|ro.|
V:2
"^2)""^1)" z2 f2 f2 f2 |"^#" e2 d4 c2 | d2 c2 c2 c2 |"^#" B2 A4 G2 | A8 :: d8 |[M:3/4] c4 d2 | %7
w: Per- che ri-|pie- no sei|cor mi- o di|tant' o- me-|i,|spe-|ra ch'an-|
w: Gia de quest'|oc- chi'un ri-|o ver- sat' il|pet- to mi-|o,|et|pur di-|
 c4 c2 | d4 A2 | A4 c2 | B4 B2 |[M:4/4] c8 | c2 cd e2 f2 | e4 f4 |[M:3/4] d2 d2 d2 |"^#" d4 c2 | %16
w: cor ve-|dro chi|ral- le-|grar mi|puo|lu- ce de gl'oc- chi|mie- i|piu non ti|la- scia-|
w: mo- stri'hoi-|me, che|con ten-|to non|fè,|mi- se- ro che pos-|s'i- o?|se non chia-|mar mer-|
[M:4/4] d8 :| %17
w: ro.|
w: cè.|
V:3
"^3)""^1)""^4)" z2 F2 F2 F2 | C2 D2 A4 | D2 A2 A2 E2 | G2 A2 E4 | A8 :: D8 |[M:3/4] A4 _B2 | %7
w: Per- che ri-|pie- no sei|cor mi- o di|tant' o- me-|i,|spe-|ra ch'an-|
w: Hor sen- to'a-|prir le por-|te, che chius' e-|ran si for-|te;|et|ve- do|
 A4 A2 | D4 F2 | F4 A2 | G4 G2 |[M:4/4] C8 | A2 Ad c2 F2 | c4 F4 |[M:3/4] _B2 B2 G2 | A4 A2 | %16
w: cor ve-|dro chi|ral- le-|grar mi|puo|lu ce de gl'oc- chi|mie- i|piu non ti|la- scia-|
w: scen- der|giu, tor-|ren- ti|di la|fu,|ch'ab- bon- dan di tal|sor- te,|ch'io non ne|pos- so|
[M:4/4] D8 :| %17
w: ro.|
w: piu.|

